X: 04a 
T: Rights of Man 
C: Traditional 
S: MandoZine TablEdit Archives 
Z: TablEdited by Mike Stangeland for MandoZine 
L: 1/8 
Q: 410 
M: 4/4 
K: Em 
z6 GA |: "Em"Bc AB GA FG | EF GA B2 ef | gf ed ed cB | "D"cB AG A2 GA | "Em"Bc AB GA FG | 
EF GA B2 ef | gf ed "B7"Bg (3fgf |1 e2 E2 E2 GA :|2 e2 E2 E2 ga 
|: "Em"ba gf ef ga | ba gf e2 g2 | "D"fg ef de fg | af df a2 gf | 
"Em"eB fB gB aB | bB aB g2 ef | g"Em"f ed "B7"Bg (3fgf |1  e2 E2 E2 ga :|2 e2 E2 E4 | 

